build/img/icons-sprite/icon-telegram.svg

<svg width="48" height="48" viewBox="0 0 48 48" fill="none" xmlns="http://www.w3.org/2000/svg">
<path d="M18.8339 30.3618L18.0399 41.5298C19.1759 41.5298 19.6679 41.0418 20.2579 40.4558L25.5839 35.3658L36.6199 43.4478C38.6439 44.5758 40.0699 43.9818 40.6159 41.5858L47.8599 7.64183L47.8619 7.63983C48.5039 4.64783 46.7799 3.47783 44.8079 4.21183L2.22787 20.5138C-0.678133 21.6418 -0.634133 23.2618 1.73387 23.9958L12.6199 27.3818L37.9059 11.5598C39.0959 10.7718 40.1779 11.2078 39.2879 11.9958L18.8339 30.3618Z" fill="currentColor"/>
</svg>

<svg width="48" height="48" fill="none" xmlns="http://www.w3.org/2000/svg"><path d="M18.834 30.362L18.04 41.53c1.136 0 1.628-.488 2.218-1.074l5.326-5.09 11.036 8.082c2.024 1.128 3.45.534 3.996-1.862L47.86 7.642l.002-.002c.642-2.992-1.082-4.162-3.054-3.428L2.228 20.514c-2.906 1.128-2.862 2.748-.494 3.482l10.886 3.386L37.906 11.56c1.19-.788 2.272-.352 1.382.436L18.834 30.362z" fill="currentColor"/></svg>
